Suru++-Ubuntu/apps/symbolic/insync-symbolic.svg

<svg width="16" height="16" version="1.1" xmlns="http://www.w3.org/2000/svg">
 <rect x="9.83" y="11.39" width="1.957" height="3.913" style="fill:#808080"/>
 <circle cx="10.805" cy="9.104" r=".978" style="fill:#808080"/>
 <path d="m10.478515 2.908485c-3.233954 3e-7 -5.869154 2.6351863-5.86914 5.8691406v0.6523437h1.304687v-0.6523437c-1e-5 -2.5290309 2.035422-4.5644528 4.564453-4.5644531h0.652344v-1.3046875z" style="fill:#808080"/>
 <path d="m10.478515 5.51786c-1.7932078 0-3.259773 1.4665576-3.259765 3.2597656v0.6523437h1.3046871v-0.6523437c-4.4e-6 -1.0882846 0.8667935-1.9550781 1.9550779-1.9550781h0.652344v-1.3046875z" style="fill:#808080"/>
 <path d="m10.478515 0.29910999c-4.674684 6.5e-7 -8.478512 3.8038309-8.478515 8.4785156v0.6523437h1.304687v-0.6523437c3e-6 -3.9697635 3.204065-7.1738276 7.173828-7.1738281h0.652344v-1.3046875z" style="fill:#808080"/>
 <rect x="9.83" y="11.39" width="1.957" height="3.913" style="fill:#808080"/>
 <circle cx="10.805" cy="9.104" r=".978" style="fill:#808080"/>
</svg>

<svg xmlns="http://www.w3.org/2000/svg" width="16" height="16" version="1.1">
 <rect style="fill:#808080" width="1.957" height="3.913" x="9.83" y="11.39"/>
 <circle style="fill:#808080" cx="10.805" cy="9.104" r=".978"/>
 <path style="fill:#808080" d="m 10.478515,2.908485 c -3.233954,3e-7 -5.869154,2.6351863 -5.86914,5.8691406 V 9.4299693 H 5.914062 V 8.7776256 c -1e-5,-2.5290309 2.035422,-4.5644528 4.564453,-4.5644531 h 0.652344 V 2.908485 Z"/>
 <path style="fill:#808080" d="m 10.478515,5.51786 c -1.7932078,0 -3.259773,1.4665576 -3.259765,3.2597656 V 9.4299693 H 8.5234371 V 8.7776256 C 8.5234327,7.689341 9.3902306,6.8225475 10.478515,6.8225475 h 0.652344 V 5.51786 Z"/>
 <path style="fill:#808080" d="M 10.478515,0.29910999 C 5.803831,0.29911064 2.000003,4.1029409 2,8.7776256 V 9.4299693 H 3.304687 V 8.7776256 c 3e-6,-3.9697635 3.204065,-7.1738276 7.173828,-7.1738281 h 0.652344 V 0.29910999 Z"/>
 <rect width="1.957" height="3.913" x="9.83" y="11.39" style="fill:#808080"/>
 <circle cx="10.805" cy="9.104" r=".978" style="fill:#808080"/>
</svg>
